X: 1
T: Lose The Head
M: 4/4
L: 1/8
R: reel
S: Garry Shannon
K: Dmaj
(3Bcd eg ~f3a|~g3f gfed|(3Bcd eg ~f3a|~g3e fedz:|
|:a2^ga ~f3z|agfa gb~b2|ba^ga fzaf|~g3e fedg:|
|:fedf edce|dc (3Bcd cBAc|BAGB AGFG|1 EF (3GFE FEDz:|2 EF (3GFE FEDA||
